X:1
T:Clair de Lune
T:Clair de Lune
T:CL.A.DEBUSSY 
C:Craude.A.Debussy
%%score { ( 1 4 ) | ( 2 3 5 6 ) }
L:1/8
Q:3/8=46
M:9/8
K:Db
V:1 treble nm="グランドピアノ"
V:4 treble 
V:2 treble 
V:3 treble 
V:5 treble 
V:6 treble 
V:1
!pp!"^Andante très expressif" z z x4 ([df]3- | ([df])[ce][df] [ce]6-) | %2
 ([ce][Bd][ce] (2:3:2df- (2:3:2fd- | [Bd][Ac][Bd] [Ac-]6) |[Q:3/8=50] (cBc BeB ABA- | %5
 AGA[Q:3/8=46] G3 F3-) |[Q:3/8=50] (FFG FBF EFE- | EDE[Q:3/8=46] D3[Q:3/8=42] C3 | %8
[Q:3/8=46] x3 [fa]3 [df]3-) | ([df]ef e6-) | (e[Dd]e [da]3 [df-]3) | (fef e3 d3-) | %12
[Q:3/8=44] (d!<(![Dd][Ee]!<)!!p! (2:3:2[Bb][Aa]- (2:3:2[Aa][Ff-] | %13
 fef[Q:3/8=42] (2:3:2e!>(!d-[Q:3/8=40] (2:3:2d[Q:3/8=30]B)!>)! | %14
!pp!"^Tempo rubato"[Q:3/8=40] (2:3:2z (!tenuto![fbf']-[Q:3/8=50] [fbf']!tenuto![ebe']!tenuto![ebe'][Q:3/8=52] !tenuto![ebe']!tenuto![dbd']!tenuto![dbd'] | %15
[Q:3/8=54] !tenuto![dbd']!tenuto![cgbc']!tenuto![cgbc'][Q:3/8=46] (2:3:2!tenuto![cgbc']!tenuto![dbd'][Q:3/8=42] !tenuto![Bgb]3) | %16
[Q:3/8=40] (2:3:2z (!tenuto![fbf']-[Q:3/8=50] [fbf'][gbg'][fbf'][Q:3/8=52] [ebe'][fbf'][ebe'] | %17
[Q:3/8=54] [dbd'][ebe'][dbd'][Q:3/8=46] (2:3:2[bc']{/e'}[dbd'][Q:3/8=42] (2:3:1[Bgb]2-) | %18
[Q:3/8=48]"^cresc." (6:9:6([Bgb][Q:3/8=52][Gg][Aea][cc'][Bgb][Gg]) | %19
[Q:3/8=46] z[Q:3/8=50] (!tenuto![Gceg]!tenuto![Gceg] !tenuto![Gceg]!tenuto![Gceg]!tenuto![_Ace_a] !tenuto![Gceg]3) | %20
[Q:3/8=48] (6:9:6z[Q:3/8=52] ([Gg][Aa][dd'][Bb][Gg]) | %21
[Q:3/8=46] z[Q:3/8=50] (!tenuto![GBeg]!tenuto![GBeg] !tenuto![GBeg]!tenuto![GBeg]!tenuto![Acfa] !tenuto![GBeg]3) | %22
[Q:3/8=46] (6:9:6z[Q:3/8=50] ([Gg][Aa][ee'][dd'][Bb]) | %23
 z ([Bgb][Bgb][Q:3/8=48] [Bgb][Bgb][cac'][Q:3/8=44] [Bgb][dbd'][Q:3/8=40][ebe']) | %24
[Q:3/8=46]!mp!!8va(!"_dim." !arpeggio!!tenuto![ad'a']6 !arpeggio!!tenuto![ad'a']3 | %25
 !arpeggio!!tenuto![ad'a']6!8va)![Q:3/8=36] !arpeggio![Ada]3[Q:3/8=40][Q:3/8=38][Q:3/8=9] | %26
!pp![Q:3/8=48]"^Un poco mosso" (A6 _c2 d)[Q:3/8=60][Q:3/8=64] | ([=FA]6 [A_c]2 A) | %28
!<(! ([Fd]2 [Ae] [df]3 [Fd]2 [df])!<)! |!mp! ([e=g][df][Bd] [Bd]3) z2 z | %30
!p![Q:3/8=56] (B6!<(! c2!<)! f)[Q:3/8=64] |!p! (B6!<(! c2!<)! f) | %32
!p![Q:3/8=68] (g3- (2:3:2gf(2:3:2=de | b6[Q:3/8=60] a3)[Q:3/8=64][Q:3/8=56][Q:3/8=52][Q:3/8=48] | %34
[Q:3/8=64]"^cresc." ([fa]6 [_a_c']2 d') | ([=fa]6[Q:3/8=62] [^g=b]2[Q:3/8=60] ^g) || %36
[K:E][Q:3/8=72]"^En animant"!mp!"_cresc." (c'2 g) (e'2 c') (g'2 e') | (g'3 f'6) | f'6 a'2 c'' | %39
 (f6 a2 c') |!f! ([c'e'][bd'][ac'] (2:3:2[gb][fa]- [fa][eg][df]) | %41
"_dim." ([ce][Bd][Ac] [GB][FA][EG]-[Q:3/8=68] [EG][DF][Q:3/8=64][CE]) || %42
[K:Db]!pp![Q:3/8=68]"^Calmato" ([DE]6 [EG]2 [EGB]) | ([DE]6 [EG]2 [EG-B-]) | %44
 ([DGB][Acf][GBe] [GB]3 [GA]3) | ([DGB][Acf][GBe][Q:3/8=66] [GB]3[Q:3/8=64] [GA]3) | %46
[Q:3/8=68] (e6 g2 b) | (e6 g2 b) | (e'6- e'3- | %49
!>(! e'3[Q:3/8=60] d'3[Q:3/8=56] e'3)!>)![Q:3/8=52][Q:3/8=48] | %50
[Q:3/8=50]"^a Tempo 1o"!ppp! z2 z!8va(! ([f'a']3 f'3- | %51
[Q:3/8=46] f'[c'e'][d'f'][Q:3/8=50] [c'e']6-) | %52
 ([c'e'][bd'][c'e'][Q:3/8=46] (2:3:2[bd'][d'f']- (2:3:2[d'f'][bd']- | %53
 [bd'][ac'][bd'] [ac']6)!8va)! |[Q:3/8=46] z ([gb][ac'] be'b[Q:3/8=46] aba-)[Q:3/8=26][Q:3/8=38] | %55
 ([fa][eg][fa] [eg]3 [=Af-]3) | (f[df][eg] fbf[Q:3/8=46] efe-[Q:3/8=30][Q:3/8=40] | %57
!<(! e[Bd][ce][Q:3/8=44] [Bd]3[Q:3/8=42] [Ac]3)!<)![Q:3/8=40] | %58
[Q:3/8=42]!pp! z2 z[Q:3/8=46] (([fa]3 [df]3-) | [df]ef e6-) | e([Dd][Ee] [fa]3 [df-]3 | %61
 fef[Q:3/8=42] e3 d3) | z (DE [FB]3 [DF]3) | z (GA d3 B3) | %64
[Q:3/8=38] z (Bc[Q:3/8=34] f3[Q:3/8=24] A3) |!pp![Q:3/8=56] x9 | z2 z!>(! (_c3 d3)!>)! | x9 | %68
 x2 x[Q:3/8=54]!>(! (_c'3[Q:3/8=52] d'3)!>)! |[Q:3/8=50]!pp! (_c'3[Q:3/8=48] d'3[Q:3/8=40] _f'3) | %70
[Q:3/8=36]!>(! [=f'a']6-[Q:3/8=26] [f'a']3!>)![Q:3/8=30][Q:3/8=20] | %71
[Q:3/8=30]!ppp! !arpeggio![ad'f'a']6 z2 z |] %72
V:2
 z"^con sordina"!ped! [FA]-[I:staff -1][fa]- [fa]3[I:staff +1] x3!ped-up! | %1
!ped! [G=A]6- [GA]3!ped-up! |!ped! [FA]6- [FA]3!ped-up! |!ped! [EG]6- [EG]3!ped-up! | %4
!ped! E6!ped-up!!ped! E3!ped-up! |!ped! D6!ped-up!!ped! C3!ped-up! | %6
[K:bass]!ped! B,6-!ped-up!!ped! B,3!ped-up! |!ped! A,6!ped-up!!ped! G,3!ped-up! | %8
!ped! ([D,,A,,][I:staff -1][F,A,][I:staff +1][K:treble][FA]- [FA]6)!ped-up! | %9
[K:bass]!ped! z [D,G,B,D]2- [D,G,B,D]6!ped-up! |!ped! z ([F,A,]2 [DF]3 [A,D]3)!ped-up! | %11
!ped! z [D,G,B,D]2- [D,G,B,D]6!ped-up! |!ped! z [F,_C]2 [_CDF]3- [CDF] z z!ped-up! | %13
!ped! z E2- (2:3:2ED- D3!ped-up! | %14
!ped! (2:3:2z[K:treble] (!tenuto![FGB]- [FGB]!tenuto![EGB]!tenuto![EGB] !tenuto![EGB]!tenuto![DGB]!tenuto![DGB] | %15
 !tenuto![DGB]!tenuto![CGB]!tenuto![CGB] (2:3:2!tenuto![CGB]!tenuto![DGB] !tenuto![B,DG]3)!ped-up! | %16
[K:bass]"^m.g."!ped! (2:3:2z[K:treble] [FGB]- [FGB][GBe][FGB] [EGB][FGB][EGB] | %17
 [DGB][EGB][DGB] (2:3:2[CGB][DGB] (2:3:1[B,EG]2!ped-up! | %18
[K:bass]!ped! (6:9:6z (G,A,CB,G,)!ped-up! | %19
!ped! z ([G,CE][G,CE] [G,CE][G,CE][_A,CE] [G,CE]3)!ped-up! |!ped! (6:9:6z (G,A,DB,G,)!ped-up! | %21
!ped! z (!tenuto![G,B,E]!tenuto![G,B,E] !tenuto![G,B,E]!tenuto![G,B,E]!tenuto![A,CF] !tenuto![G,B,E]3)!ped-up! | %22
!ped! (6:9:6z G,A,EDB,!ped-up! | %23
!ped! z [B,DG][B,DG] [B,DG][B,DG][CEA] [B,DG][K:treble][DGB][EGB]!ped-up! | %24
!ped! (!tenuto![FAdf]6!ped-up!!ped! !tenuto![_FABd_f]3!ped-up! | %25
!ped! !tenuto![EGAde]6)!ped-up!!ped! !arpeggio![A,EGc]3!ped-up! | %26
[K:bass]!ped! (D,,/A,,/D,/F,/[I:staff -1]A,/D/)[I:staff +1] (F,,/C,/F,/[I:staff -1]A,/C/F/)!ped-up!!ped![I:staff +1] (A,,/_F,/A,/[I:staff -1]_C/_F/A/)!ped-up! | %27
!ped![I:staff +1] (D,,/A,,/D,/F,/[I:staff -1]A,/D/)[I:staff +1] (F,,/C,/F,/[I:staff -1]A,/C/F/)!ped-up!!ped![I:staff +1] (A,,/_F,/A,/[I:staff -1]_C/A/_F/)!ped-up! | %28
!ped![I:staff +1] (D,,/A,,/D,/F,/A,/D/ F/A/F/D/A,/F,/ A,/F,/D,/A,,/D,/A,,/)!ped-up! | %29
!ped! (E,,/B,,/E,/=G,/B,/E/ =G/E/B,/G,/E,/B,,/ E,,/B,,/E,/G,/E,/B,,/)!ped-up! | %30
!ped! (A,,/E,/G,/B,/[I:staff -1]C/G/)[I:staff +1] (G,,/D,/G,/B,/[I:staff -1]D/G/)!ped-up!!ped![I:staff +1] (F,,/C,/F,/A,/C)!ped-up! | %31
!ped! (A,,/E,/G,/B,/[I:staff -1]C/G/)[I:staff +1] (G,,/D,/G,/B,/[I:staff -1]D/G/)!ped-up!!ped![I:staff +1] (F,,/C,/F,/A,/C)!ped-up! | %32
!ped! (E,,/B,,/E,/G,/B,/E/) (2:3:2(GF(2:3:2=DE)!ped-up! | %33
[K:treble]!ped! (=D/G/B/[I:staff -1]B/g/b/)[I:staff +1] (E/G/B/[I:staff -1]B/g/b/)!ped-up!!ped![I:staff +1] C/=E/A/[I:staff -1]c/=e/a/!ped-up! | %34
[I:staff +1][K:bass]!ped! (D,/A,/D/F/[I:staff -1]A/d/)[I:staff +1] (A,/C/F/[I:staff -1]A/c/f/)!ped-up!!ped![I:staff +1] (_C/_F/A/[I:staff -1]_c/_f/a/)!ped-up! | %35
!ped![I:staff +1] (D,/A,/D/F/[I:staff -1]A/d/)[I:staff +1] (A,/C/F/[I:staff -1]A/c/f/)!ped-up!!ped![I:staff +1] (=B,/=E/^G/[I:staff -1]=B/^g/=e/)!ped-up! || %36
[K:E][I:staff +1][K:treble]!ped! (C/E/G<B)!ped-up!!ped! (E/G/B<c)!ped-up!!ped! (G/B/c<e)!ped-up! | %37
!ped! (G/A/c/[I:staff -1]g/c'/a/)!ped-up!!ped![I:staff +1] (F/A/c/[I:staff -1]f/c'/a/)[I:staff +1] (F/A/c/[I:staff -1]f/c'/a/)!ped-up! | %38
!ped![I:staff +1] (F/A/c/[I:staff -1]f/c'/a/)[I:staff +1] (F/A/c/[I:staff -1]f/c'/a/)!ped-up!!ped![I:staff +1] (E/A/c/[I:staff -1]e/c''/c'/)!ped-up! | %39
!ped![I:staff +1] (B,/D/F/[I:staff -1]F/c/A/)[I:staff +1] (A,/C/E/[I:staff -1]F/c/A/)!ped-up!!ped![I:staff +1] (G,/C/E/A/[I:staff -1]e/a/)!ped-up! | %40
!ped![I:staff +1] F,/(C/E/F/A/c/ e/f/e/c/A/F/) (E/F/E/C/A,/F,/)!ped-up! | %41
[K:bass]!ped! (F,,/C,/E,/F,/A,/C/ E/C/A,/F,/E,/C,/)!ped-up!!ped! (F,,/C,/F,,/C,/F,,/C,/)!ped-up! || %42
[K:Db]!ped! (A,,/E,/A,,/E,/A,,/E,/ A,,/E,/A,,/E,/A,,/E,/ A,,/E,/A,,/E,/A,,/E,/!ped-up! | %43
!ped! A,,/E,/A,,/E,/A,,/E,/ A,,/E,/A,,/E,/A,,/E,/ A,,/E,/A,,/E,/A,,/E,/)!ped-up! | %44
!ped! (A,,/E,,/A,,/E,/A,,/E,/ A,/E,/A,/E/A,/E,/ A,/E,/A,,/E,/A,,/E,,/)!ped-up! | %45
!ped! (A,,/E,,/A,,/E,/A,,/E,/ A,/E,/A,/E/A,/E,/ A,/E,/A,/E,/A,/E,/)!ped-up! | %46
!ped! D6!ped-up!!ped! x3!ped-up! |!ped! D6!ped-up!!ped! x3!ped-up! | %48
[K:treble]!ped! (G/B/d/[I:staff -1]e/g/b/)[I:staff +1] (A/B/d/[I:staff -1]e/g/c'/)[I:staff +1] (G/B/d/[I:staff -1]e/g/b/)!ped-up! | %49
!ped![I:staff +1] (G/=A/d/[I:staff -1]e/g/=a/)[I:staff +1] (G/A/d/[I:staff -1]e/g/_c'/)[I:staff +1] (G/A/d/[I:staff -1]e/g/a/)!ped-up! | %50
!ped![I:staff +1] F/A/c/f/a/c'/ z2 z z2 z!ped-up! |!ped! (F/=A/c/e/f/=a/) z2 z z2 z!ped-up! | %52
!ped! (F/_A/B/d/f/a/) z2 z z2 z!ped-up! |!ped! (E/G/A/c/e/g/) z2 z z2 z!ped-up! | %54
!ped! (D/E/G/B/d/e/) z2!ped-up! z!ped! !arpeggio![EFAc]3!ped-up! | %55
[K:bass]!ped! (C,/G,/B,/C/E/G/) B3!ped-up!!ped! [CE]3!ped-up! | %56
[K:treble]!ped! A,/B,/D/F/A/B/ z2 z!ped-up!!ped! !arpeggio![B,DE]3!ped-up! | %57
[K:bass]!ped! (F,/A,/B,/D/F/A/) z2 z!ped-up!!ped! [G,C]3!ped-up! | %58
!ped! D,,[I:staff -1][F,A,][I:staff +1][K:treble][FA]-!ped-up!!ped! A6!ped-up! | %59
[K:bass]!ped! z [D,G,B,D]2- [D,G,B,D]6!ped-up! |!ped! z [F,A,]2 [DF]3 D3!ped-up! | %61
!ped! z E2- E3 D3!ped-up! |!ped! F,,6- F,,3!ped-up! |!ped! E,,3 (E,3 E3)!ped-up! | %64
!ped! (2:3:2(A,,E,[K:treble] a3[K:bass] A,3)!ped-up! | %65
!ped! (D,,/A,,/D,/F,/[I:staff -1]A,/D/)!ped-up!!ped![I:staff +1] (F,,/C,/F,/[I:staff -1]A,/C/F/)!ped-up!!ped![I:staff +1] (D,,/A,,/D,/F,/[I:staff -1]A,/D/)!ped-up! | %66
!ped![I:staff +1] (F,,/C,/F,/[I:staff -1]A,/C/F/)!ped-up!!ped![I:staff +1] (A,,/_F,/A,/_C/_F/_G/ A3)!ped-up! | %67
!pp!!ped! (D,/A,/D/=F/[I:staff -1]A/d/)!ped-up!!ped![I:staff +1] (F,/=C/F/[I:staff -1]A/c/f/)!ped-up!!ped![I:staff +1] (D,/A,/D/F/[I:staff -1]A/d/)!ped-up! | %68
!ped![I:staff +1] (F,/C/F/[I:staff -1]A/c/f/)!ped-up![I:staff +1][K:treble]!ped! (A,/_C/_F/A/_c/_f/- f3)!ped-up! | %69
!ped! (A,/_C/_F/A/_c/_f/- f3)[K:bass] A,,3!ped-up! | %70
!ped! (D,,/A,,/D,/F,/A,/D/[K:treble] FAd fad')!ped-up! |!ped! [DAdf]6 z2 z!ped-up! |] %72
V:3
 x3 [FA]6 | x9 | x9 | x9 | D6 C3 | B,6 =A,3 |[K:bass] A,6 G,3 | F,6 (2:3:2E,A,,- | %8
 x2[K:treble] x7 |[K:bass] [G,,D,]6 x2 x | [F,,D,]6 x2 x | [G,,D,]6 x2 x | A,,6- A,,3 | %13
 z [F,B,]2- [F,B,]6 | [E,,,E,,]6[K:treble] x2 x | x9 |[K:bass] [E,,,E,,]6[K:treble] x2 x | x9 | %18
[K:bass] [A,,,A,,]6 x2 x | [=A,,,=A,,]6 x2 x | [B,,,B,,]6 x2 x | [C,,C,]6 x2 x | [D,,D,]6 x2 x | %23
 [E,,E,]6 x2[K:treble] x | !arpeggio!x3 x3 !arpeggio!x2 x | !arpeggio!x3 x3 (3x/x/x/(3x/x/x/x | %26
[K:bass] x3 x3 x3 | x3 x3 x3 | x9 | x9 | x3 x3 x3 | x3 x3 x3 | x3 x2 x4 |[K:treble] x3 x3 A,3 | %34
[K:bass] x3 F,3 A,3 | x3 F,3 ^G,3 ||[K:E][K:treble] B,3 C3 E3 | x3 x3 ^E3 | E3 D3 C3 | x3 x3 x3 | %40
 F,6- F,3 |[K:bass] x9 ||[K:Db] x9 | x9 | x9 | x9 | G,2 A, B,2 D C3 | G,2 A, B,2 D C3 | %48
[K:treble] G6- x3 | G6 x3 | !tenuto!F6 !tenuto!F3 | !tenuto!F6 !tenuto!F3 | !tenuto!F6 !tenuto!F3 | %53
 !tenuto!E6 !tenuto!E3 | (D6 C3) |[K:bass] (C,6 F,3) |[K:treble] (A,6 G,3) | %57
[K:bass] F,6 (2:3:2E,A,, | A,,3[K:treble] !>![_CF]6 |[K:bass] [G,,D,]6 x2 x | A,,3 _C3- C3 | %61
 x [F,B,]2- [F,B,]6 | x9 | x9 | A,,6[K:treble][K:bass] x2 x | x3 x3 x3 | x3 A,,6 | x3 x3 x3 | %68
 x3[K:treble] A,6 | A,6[K:bass] x2 x | D,,6[K:treble] x2 x | !arpeggio!x6 x2 x |] %72
V:4
 x9 | x9 | x3 B6- | x9 | G6 G3 | E6 E3 | D6- D3 | B,6 A,3 | x9 | z [GB]2- [GB]6 | z A2 A3 F3 | %11
 z [GB]2- [GB]6 | z A2 f6 | z [FB]2- [FB]6 | x9 | x9 | x9 | x9 | x9 | x9 | (4:6:2x d3 g3 | x9 | %22
 (4:6:2x [Bd]3 (2:3:1[gb]2 | x9 |!8va(! x9 | x6!8va)! x3 | F6 A3 | x9 | x9 | %29
 x3[I:staff +1] (=G[I:staff -1]FD D3/2B,3/2) | x6 x2 A/F/ | x6 x2 A/F/ | %32
 x3 g/G/B/f/G/B/ =d/G/B/e/G/B/ | x9 | x9 | x9 ||[K:E]x>cg/e<xe/c'/g<xg/e'/b/ | x9 | x9 | x9 | x9 | %41
 x9 ||[K:Db] (G,2 A, B,2 D C3) | (G,2 A, B,2 D C3) | x3 DB,D B,CE | x3 DB,D B,CE | %46
 e/(E/G/B/G/E/) z/ (E/G/B/G/E/)[I:staff +1] (C/E/G/B/[I:staff -1]c/e/) | %47
 e/(E/G/B/G/E/) z/ (E/G/B/G/E/)[I:staff +1] (C/E/G/B/[I:staff -1]c/e/) | x9 | x9 | x3!8va(! x6 | %51
 x9 | x9 | x9!8va)! | x3 g3 f3- | x9 | x3 d3 d3 | x9 | x9 | x [GB]2- [GB]6 | z A2 A3 F3 | %61
 z [FB]2- [FB]6 | x (A,2 D3) A,3 | x ([B,D]2 [GB]3) [DG]3 | x [CG]2 [Ac]3 [CG]3 | x9 | %66
 x2 x A3 _F3 | x9 | x2 x a6 | a6 x2 x | x9 | x9 |] %72
V:5
 x9 | x9 | x9 | x9 | x9 | x9 |[K:bass] x9 | x9 | x2[K:treble] x7 |[K:bass] x9 | x9 | x9 | x9 | %13
 B,,6 x2 x | x3/2[K:treble] x15/2 | x9 |[K:bass] x3/2[K:treble] x15/2 | x9 |[K:bass] x9 | x9 | x9 | %21
 x9 | x9 | x7[K:treble] x2 | x9 | x9 |[K:bass] x9 | x9 | x9 | x9 | x9 | x9 | x9 |[K:treble] x9 | %34
[K:bass] x9 | x9 ||[K:E][K:treble] x9 | x9 | x9 | x9 | x9 |[K:bass] x9 ||[K:Db] x9 | x9 | x9 | x9 | %46
 x9 | x9 |[K:treble] x9 | x9 | x9 | x9 | x9 | x9 | x9 |[K:bass] x9 |[K:treble] x9 |[K:bass] x9 | %58
 x2[K:treble] x7 |[K:bass] x9 | x9 | B,,6 x2 x | x9 | x9 | x3[K:treble] x3[K:bass] x3 | x9 | x9 | %67
 x9 | x3[K:treble] x6 | x6[K:bass] x3 | x3[K:treble] x6 | x9 |] %72
V:6
 x9 | x9 | x9 | x9 | x9 | x9 |[K:bass] x9 | x9 | x2[K:treble] x7 |[K:bass] x9 | x9 | x9 | x9 | x9 | %14
 x3/2[K:treble] x15/2 | x9 |[K:bass] B,,4[K:treble] x4 x | x9 |[K:bass] x3 [CE]3 [EG]3 | x8 z | %20
 (4:6:2z [B,D]3 (2:3:1[DG]2 | x9 | (4:6:2x [B,D]3 (2:3:1[GB]2 | x7[K:treble] x2 | x9 | x9 | %26
[K:bass] x9 | x9 | x9 | x9 | x9 | x9 | x9 |[K:treble] x9 |[K:bass] x9 | x9 ||[K:E][K:treble] x9 | %37
 x9 | x9 | x9 | x9 |[K:bass] x9 ||[K:Db] x9 | x9 | x9 | x9 | x9 | x9 |[K:treble] x9 | x9 | x9 | %51
 x9 | x9 | x9 | x3 x2 (6:4:5x/ x/4x/4x/4x/4 x2 x |[K:bass] x9 |[K:treble] x3 z2 x/ (3x/4x/4x/4 x3 | %57
[K:bass] x9 | x2[K:treble] x7 |[K:bass] x9 | x9 | x9 | x9 | x9 | x3[K:treble] x3[K:bass] x3 | x9 | %66
 x9 | x9 | x3[K:treble] x6 | x6[K:bass] x3 | x3[K:treble] x6 | x9 |] %72

